src/assets/outline/RefreshSquare2.svg

<?xml version="1.0" encoding="UTF-8"?>
<svg width="24" height="24" viewBox="0 0 24 24" xmlns="http://www.w3.org/2000/svg">
 <path d="m15 22.75h-6c-5.43 0-7.75-2.32-7.75-7.75v-6c0-5.43 2.32-7.75 7.75-7.75h6c5.43 0 7.75 2.32 7.75 7.75v6c0 5.43-2.32 7.75-7.75 7.75zm-6-20c-4.61 0-6.25 1.64-6.25 6.25v6c0 4.61 1.64 6.25 6.25 6.25h6c4.61 0 6.25-1.64 6.25-6.25v-6c0-4.61-1.64-6.25-6.25-6.25h-6z"/>
 <path d="m17.5 12c0 3.04-2.46 5.5-5.5 5.5s-4.89-3.06-4.89-3.06m0 0h2.48m-2.48 0v2.75m-0.60999-5.19c0-3.04 2.44-5.5 5.5-5.5 3.67 0 5.5 3.06 5.5 3.06m0 0v-2.75m0 2.75h-2.44" stroke="#fff" stroke-linecap="round" stroke-linejoin="round" stroke-width="1.5"/>
</svg>

<svg width="24" height="24" viewBox="0 0 24 24"  xmlns="http://www.w3.org/2000/svg">
<path d="M15 22.75H9C3.57 22.75 1.25 20.43 1.25 15V9C1.25 3.57 3.57 1.25 9 1.25H15C20.43 1.25 22.75 3.57 22.75 9V15C22.75 20.43 20.43 22.75 15 22.75ZM9 2.75C4.39 2.75 2.75 4.39 2.75 9V15C2.75 19.61 4.39 21.25 9 21.25H15C19.61 21.25 21.25 19.61 21.25 15V9C21.25 4.39 19.61 2.75 15 2.75H9Z" />
<path d="M17.5 12C17.5 15.04 15.04 17.5 12 17.5C8.96 17.5 7.10999 14.44 7.10999 14.44M7.10999 14.44H9.59M7.10999 14.44V17.19M6.5 12C6.5 8.96 8.94 6.5 12 6.5C15.67 6.5 17.5 9.56 17.5 9.56M17.5 9.56V6.81M17.5 9.56H15.06" stroke="white" stroke-width="1.5" stroke-linecap="round" stroke-linejoin="round"/>
</svg>
